;FLAVOR:Marlin
;TIME:27039
;Filament used: 13.7602m
;Layer height: 0.16
;MINX:43.558
;MINY:54.326
;MINZ:0.2
;MAXX:188.776
;MAXY:176.224
;MAXZ:21.04
;Generated with Cura_SteamEngine 4.13.1
M140 S60
M105
M190 S60
M104 S200
M105
M109 S200
M82 ;absolute extrusion mode
; Ender 3 Custom Start G-code
G92 E0 ; Reset Extruder
G28 ; Home all axes
G1 Z2.0 F3000 ; Move Z Axis up little to prevent scratching of Heat Bed
G1 X0.1 Y20 Z0.3 F5000.0 ; Move to start position
G1 X0.1 Y200.0 Z0.3 F1500.0 E15 ; Draw the first line
G1 X0.4 Y200.0 Z0.3 F5000.0 ; Move to side a little
G1 X0.4 Y20 Z0.3 F1500.0 E30 ; Draw the second line
G92 E0 ; Reset Extruder
G1 Z2.0 F3000 ; Move Z Axis up little to prevent scratching of Heat Bed
G1 X5 Y20 Z0.3 F5000.0 ; Move over to prevent blob squish
G92 E0
G92 E0
G1 F1500 E-6.5
;LAYER_COUNT:120
;LAYER:0
M107
G1 F300 Z0.4
G0 F6000 X100.584 Y58.837 Z0.4
;TYPE:SKIRT
G1 F300 Z0.2
G1 F1500 E0
G1 F1200 X100.662 Y58.746 E0.00399
G1 X100.959 Y58.282 E0.02231
G1 X101.029 Y58.127 E0.02797
G1 X111.815 Y58.127 E0.38671
G1 X111.815 Y69.527 E0.76588
G1 X101.034 Y69.527 E1.12445
G1 X100.792 Y69.093 E1.14098
G1 X100.584 Y68.837 E1.15195
G1 X100.662 Y68.746 E1.15594
G1 X100.959 Y68.282 E1.17426
G1 X101.185 Y67.779 E1.1926
G1 X101.336 Y67.249 E1.21093
G1 X101.415 Y66.476 E1.23678
G1 X101.415 Y66.177 E1.24672
G1 X101.375 Y65.627 E1.26506
G1 X101.256 Y65.089 E1.28339
G1 X101.06 Y64.574 E1.30172
G1 X100.792 Y64.093 E1.32003
G1 X100.584 Y63.837 E1.331
G1 X100.662 Y63.746 E1.33499
G1 X100.959 Y63.282 E1.35331
G1 X101.185 Y62.779 E1.37165
G1 X101.336 Y62.249 E1.38998
G1 X101.415 Y61.476 E1.41582
G1 X101.415 Y61.177 E1.42577
G1 X101.375 Y60.627 E1.44411
G1 X101.256 Y60.089 E1.46244
G1 X101.06 Y59.574 E1.48076
G1 X100.792 Y59.093 E1.49908
G1 X100.584 Y58.837 E1.51005
G0 F6000 X100.358 Y58.484
G1 F1200 X100.633 Y58.042 E1.52736
G1 X100.767 Y57.727 E1.53875
G1 X112.215 Y57.727 E1.91951
G1 X112.215 Y69.927 E2.32528
G1 X100.766 Y69.927 E2.70608
G1 X100.661 Y69.667 E2.71541
G1 X100.395 Y69.219 E2.73274
G1 X100.064 Y68.827 E2.7498
G1 X100.358 Y68.484 E2.76482
G1 X100.633 Y68.042 E2.78214
G1 X100.837 Y67.562 E2.79949
G1 X100.965 Y67.057 E2.81681
G1 X101.015 Y66.476 E2.83621
G1 X101.015 Y66.177 E2.84615
G1 X100.975 Y65.657 E2.8635
G1 X100.856 Y65.15 E2.88082
G1 X100.661 Y64.667 E2.89815
G1 X100.395 Y64.219 E2.91547
G1 X100.064 Y63.827 E2.93254
G1 X100.358 Y63.484 E2.94756
G1 X100.633 Y63.042 E2.96488
G1 X100.837 Y62.562 E2.98223
G1 X100.965 Y62.057 E2.99955
G1 X101.015 Y61.476 E3.01895
G1 X101.015 Y61.177 E3.02889
G1 X100.975 Y60.657 E3.04624
G1 X100.856 Y60.15 E3.06356
G1 X100.661 Y59.667 E3.08089
G1 X100.395 Y59.219 E3.09821
G1 X100.064 Y58.827 E3.11528
G1 X100.358 Y58.484 E3.1303
G0 F6000 X99.746 Y57.965
G1 F1200 X99.973 Y57.57 E3.14546
G1 X100.128 Y57.142 E3.1606
G1 X100.156 Y56.927 E3.16781
G1 X113.015 Y56.927 E3.5955
G1 X113.015 Y70.727 E4.05449
G1 X100.175 Y70.727 E4.48155
G1 X100.057 Y70.283 E4.49683
G1 X99.863 Y69.871 E4.51198
G1 X99.453 Y69.339 E4.53432
G1 X99.336 Y69.222 E4.53982
G1 X98.987 Y68.929 E4.55498
G1 X98.817 Y68.831 E4.5615
G1 X99.336 Y68.431 E4.5833
G1 X99.453 Y68.314 E4.5888
G1 X99.746 Y67.965 E4.60396
G1 X99.973 Y67.57 E4.61911
G1 X100.128 Y67.142 E4.63425
G1 X100.215 Y66.476 E4.65659
G1 X100.215 Y66.177 E4.66653
G1 X100.175 Y65.723 E4.68169
G1 X100.057 Y65.283 E4.69684
G1 X99.863 Y64.871 E4.71199
G1 X99.453 Y64.339 E4.73433
G1 X99.336 Y64.222 E4.73983
G1 X98.987 Y63.929 E4.75499
G1 X98.817 Y63.831 E4.76151
G1 X99.336 Y63.431 E4.78331
G1 X99.453 Y63.314 E4.78881
G1 X99.746 Y62.965 E4.80397
G1 X99.973 Y62.57 E4.81912
G1 X100.128 Y62.142 E4.83426
G1 X100.215 Y61.476 E4.8566
G1 X100.215 Y61.177 E4.86655
G1 X100.175 Y60.723 E4.8817
G1 X100.057 Y60.283 E4.89686
G1 X99.863 Y59.871 E4.912
G1 X99.453 Y59.339 E4.93434
G1 X99.336 Y59.222 E4.93984
G1 X98.987 Y58.929 E4.955
G1 X98.817 Y58.831 E4.96153
G1 X99.336 Y58.431 E4.98332
G1 X99.453 Y58.314 E4.98882
G1 X99.746 Y57.965 E5.00398
G0 F6000 X99.437 Y57.708
G1 F1200 X99.638 Y57.341 E5.0179
G1 X99.765 Y56.941 E5.03186
G1 X99.81 Y56.527 E5.04571
G1 X113.415 Y56.527 E5.49821
G1 X113.415 Y71.127 E5.98381
G1 X99.81 Y71.127 E6.43631
G1 X99.775 Y70.76 E6.44858
G1 X99.657 Y70.358 E6.46251
G1 X99.464 Y69.986 E6.47645
G1 X99.171 Y69.621 E6.49202
G1 X99.054 Y69.504 E6.49752
G1 X98.73 Y69.238 E6.51146
G1 X98.363 Y69.037 E6.52538
G1 X97.963 Y68.91 E6.53934
G1 X97.497 Y68.86 E6.55493
G1 X95.731 Y68.861 E6.61366
G1 X95.314 Y68.901 E6.6276
G1 X94.912 Y69.02 E6.64154
G1 X94.54 Y69.212 E6.65546
G1 X94.176 Y69.505 E6.67101
G1 X94.059 Y69.622 E6.67651
G1 X93.793 Y69.946 E6.69045
G1 X93.592 Y70.313 E6.70437
G1 X93.465 Y70.713 E6.71833
G1 X93.42 Y71.127 E6.73218
G1 X69.574 Y71.127 E7.5253
G1 X69.665 Y70.841 E7.53528
G1 X69.715 Y70.376 E7.55084
G1 X69.715 Y67.278 E7.65388
G1 X69.675 Y66.861 E7.66781
G1 X69.557 Y66.459 E7.68175
G1 X69.364 Y66.087 E7.69568
G1 X69.071 Y65.722 E7.71125
G1 X68.72 Y65.371 E7.72776
G1 X68.396 Y65.105 E7.7417
G1 X68.029 Y64.904 E7.75562
G1 X67.629 Y64.777 E7.76958
G1 X67.164 Y64.727 E7.78514
G1 X64.066 Y64.727 E7.88818
G1 X63.649 Y64.767 E7.90211
G1 X63.247 Y64.885 E7.91604
G1 X62.875 Y65.078 E7.92998
G1 X62.815 Y65.126 E7.93254
G1 X62.815 Y62.533 E8.01878
G1 X62.834 Y62.549 E8.01961
G1 X63.201 Y62.75 E8.03352
G1 X63.601 Y62.877 E8.04748
G1 X64.066 Y62.927 E8.06304
G1 X67.164 Y62.927 E8.16608
G1 X67.581 Y62.887 E8.18001
G1 X67.983 Y62.769 E8.19395
G1 X68.355 Y62.576 E8.20788
G1 X68.72 Y62.283 E8.22345
G1 X69.071 Y61.932 E8.23996
G1 X69.337 Y61.608 E8.2539
G1 X69.538 Y61.241 E8.26782
G1 X69.665 Y60.841 E8.28178
G1 X69.715 Y60.376 E8.29734
G1 X69.715 Y57.278 E8.40038
G1 X69.675 Y56.861 E8.41431
G1 X69.577 Y56.527 E8.42589
G1 X93.42 Y56.527 E9.21891
G1 X93.455 Y56.894 E9.23117
G1 X93.573 Y57.296 E9.2451
G1 X93.766 Y57.668 E9.25904
G1 X94.059 Y58.033 E9.27461
G1 X94.176 Y58.15 E9.28011
G1 X94.5 Y58.416 E9.29406
G1 X94.867 Y58.617 E9.30797
G1 X95.267 Y58.744 E9.32193
G1 X95.733 Y58.794 E9.33752
G1 X97.499 Y58.793 E9.39626
G1 X97.916 Y58.753 E9.41019
G1 X98.318 Y58.634 E9.42414
G1 X98.69 Y58.442 E9.43806
G1 X99.054 Y58.149 E9.4536
G1 X99.171 Y58.032 E9.4591
G1 X99.437 Y57.708 E9.47305
G0 F6000 X99.126 Y57.454
G1 F1200 X99.297 Y57.116 E9.48565
G1 X99.394 Y56.75 E9.49824
G1 X99.415 Y56.476 E9.50738
G1 X99.415 Y56.177 E9.51732
G1 X99.41 Y56.127 E9.51899
G1 X113.815 Y56.127 E9.99811
G1 X113.815 Y71.527 E10.51031
G1 X99.411 Y71.527 E10.98939
G1 X99.415 Y71.476 E10.99109
G1 X99.415 Y71.177 E11.00104
G1 X99.375 Y70.8 E11.01365
G1 X99.257 Y70.44 E11.02625
G1 X99.067 Y70.113 E11.03883
G1 X98.888 Y69.904 E11.04798
G1 X98.771 Y69.787 E11.05348
G1 X98.476 Y69.549 E11.06609
G1 X98.138 Y69.378 E11.07869
G1 X97.772 Y69.281 E11.09128
G1 X97.497 Y69.26 E11.10045
G1 X95.731 Y69.261 E11.15919
G1 X95.354 Y69.301 E11.1718
G1 X94.994 Y69.419 E11.1844
G1 X94.667 Y69.61 E11.197
G1 X94.459 Y69.788 E11.2061
G1 X94.342 Y69.905 E11.21161
G1 X94.104 Y70.2 E11.22421
G1 X93.933 Y70.538 E11.23681
G1 X93.836 Y70.904 E11.24941
G1 X93.815 Y71.178 E11.25855
G1 X93.815 Y71.477 E11.26849
G1 X93.82 Y71.527 E11.27016
G1 X68.886 Y71.527 E12.09947
G1 X69.026 Y71.354 E12.10687
G1 X69.197 Y71.016 E12.11947
G1 X69.294 Y70.65 E12.13206
G1 X69.315 Y70.376 E12.1412
G1 X69.315 Y67.278 E12.24424
G1 X69.275 Y66.901 E12.25685
G1 X69.157 Y66.541 E12.26945
G1 X68.967 Y66.214 E12.28203
G1 X68.788 Y66.005 E12.29118
G1 X68.437 Y65.654 E12.30769
G1 X68.142 Y65.416 E12.3203
G1 X67.804 Y65.245 E12.3329
G1 X67.438 Y65.148 E12.34549
G1 X67.164 Y65.127 E12.35463
G1 X64.066 Y65.127 E12.45767
G1 X63.689 Y65.167 E12.47028
G1 X63.329 Y65.285 E12.48288
G1 X63.002 Y65.475 E12.49546
G1 X62.793 Y65.654 E12.50461
G1 X62.442 Y66.005 E12.52112
G1 X62.415 Y66.038 E12.52254
G1 X62.415 Y61.617 E12.66959
G1 X62.442 Y61.649 E12.67098
G1 X62.793 Y62 E12.68749
G1 X63.088 Y62.238 E12.7001
G1 X63.426 Y62.409 E12.71269
G1 X63.792 Y62.506 E12.72529
G1 X64.066 Y62.527 E12.73443
G1 X67.164 Y62.527 E12.83747
G1 X67.541 Y62.487 E12.85008
G1 X67.901 Y62.369 E12.86268
G1 X68.228 Y62.179 E12.87526
G1 X68.437 Y62 E12.88441
G1 X68.788 Y61.649 E12.90092
G1 X69.026 Y61.354 E12.91353
G1 X69.197 Y61.016 E12.92612
G1 X69.294 Y60.65 E12.93872
G1 X69.315 Y60.376 E12.94786
G1 X69.315 Y57.278 E13.0509
G1 X69.275 Y56.901 E13.06351
G1 X69.157 Y56.541 E13.07611
G1 X68.967 Y56.214 E13.08869
G1 X68.892 Y56.127 E13.09251
G1 X93.819 Y56.127 E13.92158
G1 X93.815 Y56.178 E13.92328
G1 X93.815 Y56.477 E13.93323
G1 X93.855 Y56.854 E13.94584
G1 X93.973 Y57.214 E13.95844
G1 X94.163 Y57.541 E13.97102
G1 X94.342 Y57.75 E13.98017
G1 X94.459 Y57.867 E13.98567
G1 X94.754 Y58.105 E13.99828
G1 X95.092 Y58.276 E14.01088
G1 X95.458 Y58.373 E14.02347
G1 X95.733 Y58.394 E14.03264
G1 X97.499 Y58.393 E14.09138
G1 X97.876 Y58.353 E14.10399
G1 X98.236 Y58.235 E14.11659
G1 X98.563 Y58.044 E14.12919
G1 X98.771 Y57.866 E14.13829
G1 X98.888 Y57.749 E14.1438
G1 X99.126 Y57.454 E14.1564
G0 F6000 X98.605 Y57.466
G1 F1200 X98.811 Y57.203 E14.16751
G1 X98.95 Y56.899 E14.17863
G1 X99.015 Y56.476 E14.19287
G1 X99.015 Y56.177 E14.20281
G1 X98.975 Y55.845 E14.21393
G1 X98.931 Y55.727 E14.21812
G1 X114.215 Y55.727 E14.72647
G1 X114.215 Y71.927 E15.26528
G1 X98.937 Y71.927 E15.77343
G1 X98.95 Y71.899 E15.77446
G1 X99.015 Y71.476 E15.78869
G1 X99.015 Y71.177 E15.79864
G1 X98.975 Y70.845 E15.80976
G1 X98.858 Y70.533 E15.82084
G1 X98.605 Y70.187 E15.8351
G1 X98.488 Y70.07 E15.8406
G1 X98.225 Y69.864 E15.85171
G1 X97.921 Y69.725 E15.86283
G1 X97.497 Y69.66 E15.8771
G1 X95.731 Y69.661 E15.93584
G1 X95.4 Y69.701 E15.94693
G1 X95.087 Y69.819 E15.95805
G1 X94.742 Y70.071 E15.97226
G1 X94.625 Y70.188 E15.97776
G1 X94.419 Y70.451 E15.98888
G1 X94.28 Y70.755 E15.99999
G1 X94.215 Y71.178 E16.01423
G1 X94.215 Y71.477 E16.02417
G1 X94.255 Y71.809 E16.03529
G1 X94.299 Y71.927 E16.03948
G1 X67.867 Y71.927 E16.91862
G1 X68.154 Y71.717 E16.93044
G1 X68.505 Y71.366 E16.94695
G1 X68.711 Y71.103 E16.95806
G1 X68.85 Y70.799 E16.96918
G1 X68.915 Y70.376 E16.98342
G1 X68.915 Y67.278 E17.08646
G1 X68.875 Y66.946 E17.09758
G1 X68.758 Y66.634 E17.10866
G1 X68.505 Y66.288 E17.12292
G1 X68.154 Y65.937 E17.13943
G1 X67.891 Y65.731 E17.15054
G1 X67.587 Y65.592 E17.16166
G1 X67.164 Y65.527 E17.17589
G1 X64.066 Y65.527 E17.27893
G1 X63.734 Y65.567 E17.29005
G1 X63.422 Y65.684 E17.30114
G1 X63.076 Y65.937 E17.31539
G1 X62.725 Y66.288 E17.3319
G1 X62.519 Y66.551 E17.34301
G1 X62.38 Y66.855 E17.35413
G1 X62.315 Y67.278 E17.36837
G1 X62.315 Y70.376 E17.47141
G1 X62.355 Y70.708 E17.48253
G1 X62.472 Y71.02 E17.49361
G1 X62.725 Y71.366 E17.50787
G1 X63.076 Y71.717 E17.52438
G1 X63.339 Y71.923 E17.53549
G1 X63.348 Y71.927 E17.53582
G1 X62.015 Y71.927 E17.58015
G1 X62.015 Y55.727 E18.11897
G1 X63.363 Y55.727 E18.1638
G1 X63.076 Y55.937 E18.17563
G1 X62.725 Y56.288 E18.19214
G1 X62.519 Y56.551 E18.20325
G1 X62.38 Y56.855 E18.21437
G1 X62.315 Y57.278 E18.2286
G1 X62.315 Y60.376 E18.33164
G1 X62.355 Y60.708 E18.34276
G1 X62.472 Y61.02 E18.35385
G1 X62.725 Y61.366 E18.3681
G1 X63.076 Y61.717 E18.38461
G1 X63.339 Y61.923 E18.39573
G1 X63.643 Y62.062 E18.40684
G1 X64.066 Y62.127 E18.42108
G1 X67.164 Y62.127 E18.52412
G1 X67.496 Y62.087 E18.53524
G1 X67.808 Y61.97 E18.54632
G1 X68.154 Y61.717 E18.56058
G1 X68.505 Y61.366 E18.57709
G1 X68.711 Y61.103 E18.5882
G1 X68.85 Y60.799 E18.59932
G1 X68.915 Y60.376 E18.61355
G1 X68.915 Y57.278 E18.71659
G1 X68.875 Y56.946 E18.72771
G1 X68.758 Y56.634 E18.7388
G1 X68.505 Y56.288 E18.75305
G1 X68.154 Y55.937 E18.76956
G1 X67.891 Y55.731 E18.78067
G1 X67.882 Y55.727 E18.781
G1 X94.293 Y55.727 E19.65944
G1 X94.28 Y55.755 E19.66046
G1 X94.215 Y56.178 E19.6747
G1 X94.215 Y56.477 E19.68464
G1 X94.255 Y56.809 E19.69576
G1 X94.372 Y57.121 E19.70685
G1 X94.625 Y57.467 E19.7211
G1 X94.742 Y57.584 E19.72661
G1 X95.005 Y57.79 E19.73772
G1 X95.309 Y57.929 E19.74883
G1 X95.733 Y57.994 E19.7631
G1 X97.499 Y57.993 E19.82184
G1 X97.83 Y57.953 E19.83293
G1 X98.143 Y57.835 E19.84405
G1 X98.488 Y57.583 E19.85826
G1 X98.605 Y57.466 E19.86377
G0 F6000 X98.322 Y57.183
G1 F1200 X98.491 Y56.957 E19.87315
G1 X98.591 Y56.693 E19.88254
G1 X98.615 Y56.476 E19.8898
G1 X98.615 Y56.177 E19.89975
G1 X98.575 Y55.898 E19.90912
G1 X98.459 Y55.641 E19.9185
G1 X98.205 Y55.353 E19.93127
G1 X98.17 Y55.327 E19.93272
G1 X114.615 Y55.327 E20.47969
G1 X114.615 Y72.327 E21.04511
G1 X98.171 Y72.327 E21.59204
G1 X98.322 Y72.183 E21.59898
G1 X98.491 Y71.957 E21.60836
G1 X98.591 Y71.693 E21.61775
G1 X98.615 Y71.476 E21.62502
G1 X98.615 Y71.177 E21.63496
G1 X98.575 Y70.898 E21.64434
G1 X98.459 Y70.641 E21.65371
G1 X98.205 Y70.353 E21.66649
G1 X97.979 Y70.184 E21.67587
G1 X97.715 Y70.084 E21.68526
G1 X97.497 Y70.06 E21.69256
G1 X95.731 Y70.061 E21.75129
G1 X95.452 Y70.101 E21.76067
G1 X95.195 Y70.217 E21.77005
G1 X94.908 Y70.471 E21.78279
G1 X94.739 Y70.697 E21.79218
G1 X94.639 Y70.961 E21.80157
G1 X94.615 Y71.178 E21.80883
G1 X94.615 Y71.477 E21.81877
G1 X94.655 Y71.756 E21.82815
G1 X94.771 Y72.013 E21.83753
G1 X95.025 Y72.301 E21.8503
G1 X95.06 Y72.327 E21.85175
G1 X61.615 Y72.327 E22.96413
G1 X61.615 Y55.327 E23.52956
G1 X95.059 Y55.327 E24.64191
G1 X94.908 Y55.471 E24.64885
G1 X94.739 Y55.697 E24.65823
G1 X94.639 Y55.961 E24.66762
G1 X94.615 Y56.178 E24.67489
G1 X94.615 Y56.477 E24.68483
G1 X94.655 Y56.756 E24.6942
G1 X94.771 Y57.013 E24.70358
G1 X95.025 Y57.301 E24.71636
G1 X95.251 Y57.47 E24.72574
G1 X95.515 Y57.57 E24.73513
G1 X95.733 Y57.594 E24.74243
G1 X97.499 Y57.593 E24.80116
G1 X97.778 Y57.553 E24.81054
G1 X98.035 Y57.437 E24.81992
G1 X98.322 Y57.183 E24.83266
G1 F1500 E18.33266
G1 F300 Z0.4
G0 F6000 X99.997 Y59.353 Z0.4
G1 F300 Z0.2
G1 F1500 E24.83266
G1 F1200 X99.736 Y59.056 E24.84581
G1 X99.489 Y58.828 E24.85699
G1 X99.736 Y58.597 E24.86824
G1 X100.053 Y58.224 E24.88452
G1 X100.305 Y57.804 E24.90081
G1 X100.485 Y57.349 E24.91709
G1 X100.49 Y57.327 E24.91784
G1 X112.615 Y57.327 E25.32112
G1 X112.615 Y70.327 E25.7535
G1 X100.484 Y70.327 E26.15698
G1 X100.456 Y70.214 E26.16085
G1 X100.262 Y69.765 E26.17712
G1 X99.997 Y69.353 E26.19341
G1 X99.736 Y69.056 E26.20656
G1 X99.489 Y68.828 E26.21774
G1 X99.736 Y68.597 E26.22899
G1 X100.053 Y68.224 E26.24527
G1 X100.305 Y67.804 E26.26156
G1 X100.485 Y67.349 E26.27784
G1 X100.589 Y66.871 E26.29411
G1 X100.615 Y66.476 E26.30727
G1 X100.615 Y66.177 E26.31722
G1 X100.575 Y65.689 E26.3335
G1 X100.456 Y65.214 E26.34979
G1 X100.262 Y64.765 E26.36606
G1 X99.997 Y64.353 E26.38235
G1 X99.736 Y64.056 E26.3955
G1 X99.489 Y63.828 E26.40668
G1 X99.736 Y63.597 E26.41793
G1 X100.053 Y63.224 E26.43421
G1 X100.305 Y62.804 E26.4505
G1 X100.485 Y62.349 E26.46678
G1 X100.589 Y61.871 E26.48305
G1 X100.615 Y61.476 E26.49621
G1 X100.615 Y61.177 E26.50616
G1 X100.575 Y60.689 E26.52244
G1 X100.456 Y60.214 E26.53873
G1 X100.262 Y59.765 E26.555
G1 X99.997 Y59.353 E26.57129
G0 F6000 X99.464 Y59.986
G1 F1200 X99.171 Y59.621 E26.58686
G1 X99.054 Y59.504 E26.59236
G1 X98.73 Y59.238 E26.6063
G1 X98.363 Y59.037 E26.62022
G1 X97.963 Y58.91 E26.63418
G1 X97.497 Y58.86 E26.64977
G1 X95.731 Y58.861 E26.70851
G1 X95.314 Y58.901 E26.72244
G1 X94.912 Y59.02 E26.73638
G1 X94.54 Y59.212 E26.75031
G1 X94.176 Y59.505 E26.76585
G1 X94.059 Y59.622 E26.77135
G1 X93.793 Y59.946 E26.78529
G1 X93.592 Y60.313 E26.79921
G1 X93.465 Y60.713 E26.81317
G1 X93.415 Y61.178 E26.82873
G1 X93.415 Y61.477 E26.83867
G1 X93.455 Y61.894 E26.8526
G1 X93.573 Y62.296 E26.86654
G1 X93.766 Y62.668 E26.88048
G1 X94.059 Y63.033 E26.89604
G1 X94.176 Y63.15 E26.90155
G1 X94.5 Y63.416 E26.91549
G1 X94.867 Y63.617 E26.92941
G1 X95.267 Y63.744 E26.94337
G1 X95.733 Y63.794 E26.95895
G1 X97.499 Y63.793 E27.01769
G1 X97.916 Y63.753 E27.03163
G1 X98.318 Y63.634 E27.04557
G1 X98.69 Y63.442 E27.05949
G1 X99.054 Y63.149 E27.07503
G1 X99.171 Y63.032 E27.08054
G1 X99.437 Y62.708 E27.09448
G1 X99.638 Y62.341 E27.1084
G1 X99.765 Y61.941 E27.12236
G1 X99.815 Y61.476 E27.13791
G1 X99.815 Y61.177 E27.14786
G1 X99.775 Y60.76 E27.16179
G1 X99.657 Y60.358 E27.17572
G1 X99.464 Y59.986 E27.18966
G0 F6000 X99.067 Y60.113
G1 F1200 X98.888 Y59.904 E27.19882
G1 X98.771 Y59.787 E27.20432
