;FLAVOR:Marlin
;TIME:14504
;Filament used: 7.83677m
;Layer height: 0.16
;MINX:61.274
;MINY:56.814
;MINZ:0.2
;MAXX:129.5
;MAXY:183.184
;MAXZ:13.92
;Generated with Cura_SteamEngine 4.13.1
M140 S60
M105
M190 S60
M104 S200
M105
M109 S200
M82 ;absolute extrusion mode
; Ender 3 Custom Start G-code
G92 E0 ; Reset Extruder
G28 ; Home all axes
G1 Z2.0 F3000 ; Move Z Axis up little to prevent scratching of Heat Bed
G1 X0.1 Y20 Z0.3 F5000.0 ; Move to start position
G1 X0.1 Y200.0 Z0.3 F1500.0 E15 ; Draw the first line
G1 X0.4 Y200.0 Z0.3 F5000.0 ; Move to side a little
G1 X0.4 Y20 Z0.3 F1500.0 E30 ; Draw the second line
G92 E0 ; Reset Extruder
G1 Z2.0 F3000 ; Move Z Axis up little to prevent scratching of Heat Bed
G1 X5 Y20 Z0.3 F5000.0 ; Move over to prevent blob squish
G92 E0
G92 E0
G1 F1500 E-6.5
;LAYER_COUNT:74
;LAYER:0
M107
G1 F300 Z0.4
G0 F6000 X122.224 Y59.785 Z0.4
;TYPE:SKIRT
G1 F300 Z0.2
G1 F1500 E0
G1 F1200 X122.124 Y60.049 E0.00939
G1 X122.1 Y60.266 E0.01665
G1 X122.1 Y63.364 E0.11969
G1 X122.14 Y63.643 E0.12907
G1 X122.256 Y63.9 E0.13844
G1 X122.393 Y64.071 E0.14573
G1 X122.744 Y64.422 E0.16224
G1 X122.97 Y64.591 E0.17163
G1 X123.234 Y64.691 E0.18102
G1 X123.451 Y64.715 E0.18828
G1 X126.549 Y64.715 E0.29132
G1 X126.828 Y64.675 E0.30069
G1 X127.085 Y64.559 E0.31007
G1 X127.256 Y64.422 E0.31736
G1 X127.607 Y64.071 E0.33387
G1 X127.776 Y63.845 E0.34325
G1 X127.876 Y63.581 E0.35264
G1 X127.9 Y63.364 E0.35991
G1 X127.9 Y60.266 E0.46295
G1 X127.86 Y59.987 E0.47232
G1 X127.744 Y59.73 E0.4817
G1 X127.607 Y59.559 E0.48899
G1 X127.256 Y59.208 E0.5055
G1 X127.03 Y59.039 E0.51488
G1 X126.766 Y58.939 E0.52427
G1 X126.549 Y58.915 E0.53153
G1 X123.451 Y58.915 E0.63457
G1 X123.172 Y58.955 E0.64395
G1 X122.915 Y59.071 E0.65333
G1 X122.744 Y59.208 E0.66061
G1 X122.393 Y59.559 E0.67712
G1 X122.224 Y59.785 E0.68651
G0 F6000 X122.552 Y60.021
G1 F1200 X122.5 Y60.266 E0.69484
G1 X122.5 Y63.364 E0.79788
G1 X122.54 Y63.579 E0.80515
G1 X122.676 Y63.788 E0.81345
G1 X123.027 Y64.139 E0.82996
G1 X123.206 Y64.263 E0.8372
G1 X123.451 Y64.315 E0.84553
G1 X126.549 Y64.315 E0.94857
G1 X126.764 Y64.275 E0.95584
G1 X126.973 Y64.139 E0.96414
G1 X127.324 Y63.788 E0.98065
G1 X127.448 Y63.609 E0.98789
G1 X127.5 Y63.364 E0.99622
G1 X127.5 Y60.266 E1.09926
G1 X127.46 Y60.051 E1.10653
G1 X127.324 Y59.842 E1.11483
G1 X126.973 Y59.491 E1.13134
G1 X126.794 Y59.367 E1.13858
G1 X126.549 Y59.315 E1.14691
G1 X123.451 Y59.315 E1.24995
G1 X123.236 Y59.355 E1.25722
G1 X123.027 Y59.491 E1.26552
G1 X122.676 Y59.842 E1.28203
G1 X122.552 Y60.021 E1.28927
G0 F6000 X122.959 Y60.125
G1 F1200 X122.9 Y60.266 E1.29435
G1 X122.9 Y63.364 E1.39739
G1 X122.959 Y63.505 E1.40248
G1 X123.31 Y63.856 E1.41899
G1 X123.451 Y63.915 E1.42407
G1 X126.549 Y63.915 E1.52711
G1 X126.69 Y63.856 E1.53219
G1 X127.041 Y63.505 E1.5487
G1 X127.1 Y63.364 E1.55379
G1 X127.1 Y60.266 E1.65683
G1 X127.041 Y60.125 E1.66191
G1 X126.69 Y59.774 E1.67842
G1 X126.549 Y59.715 E1.6835
G1 X123.451 Y59.715 E1.78654
G1 X123.31 Y59.774 E1.79163
G1 X122.959 Y60.125 E1.80814
G1 F1500 E-4.69186
G1 F300 Z0.4
G0 F6000 X117.9 Y60.266 Z0.4
G1 F300 Z0.2
G1 F1500 E1.80814
G1 F1200 X117.86 Y59.987 E1.81751
G1 X117.744 Y59.73 E1.82689
G1 X117.607 Y59.559 E1.83418
G1 X117.256 Y59.208 E1.85069
G1 X117.03 Y59.039 E1.86007
G1 X116.766 Y58.939 E1.86946
G1 X116.549 Y58.915 E1.87672
G1 X113.451 Y58.915 E1.97976
G1 X113.172 Y58.955 E1.98914
G1 X112.915 Y59.071 E1.99852
G1 X112.744 Y59.208 E2.0058
G1 X112.393 Y59.559 E2.02231
G1 X112.224 Y59.785 E2.0317
G1 X112.124 Y60.049 E2.04109
G1 X112.1 Y60.266 E2.04835
G1 X112.1 Y63.364 E2.15139
G1 X112.14 Y63.643 E2.16077
G1 X112.256 Y63.9 E2.17014
G1 X112.393 Y64.071 E2.17743
G1 X112.744 Y64.422 E2.19394
G1 X112.97 Y64.591 E2.20333
G1 X113.234 Y64.691 E2.21272
G1 X113.451 Y64.715 E2.21998
G1 X116.549 Y64.715 E2.32302
G1 X116.828 Y64.675 E2.33239
G1 X117.085 Y64.559 E2.34177
G1 X117.256 Y64.422 E2.34906
G1 X117.607 Y64.071 E2.36557
G1 X117.776 Y63.845 E2.37496
G1 X117.876 Y63.581 E2.38434
G1 X117.9 Y63.364 E2.39161
G1 X117.9 Y60.266 E2.49465
G0 F6000 X117.5 Y60.266
G1 F1200 X117.46 Y60.051 E2.50192
G1 X117.324 Y59.842 E2.51021
G1 X116.973 Y59.491 E2.52672
G1 X116.794 Y59.367 E2.53397
G1 X116.549 Y59.315 E2.5423
G1 X113.451 Y59.315 E2.64534
G1 X113.236 Y59.355 E2.65261
G1 X113.027 Y59.491 E2.6609
G1 X112.676 Y59.842 E2.67741
G1 X112.552 Y60.021 E2.68466
G1 X112.5 Y60.266 E2.69299
G1 X112.5 Y63.364 E2.79603
G1 X112.54 Y63.579 E2.8033
G1 X112.676 Y63.788 E2.81159
G1 X113.027 Y64.139 E2.8281
G1 X113.206 Y64.263 E2.83535
G1 X113.451 Y64.315 E2.84368
G1 X116.549 Y64.315 E2.94672
G1 X116.764 Y64.275 E2.95399
G1 X116.973 Y64.139 E2.96228
G1 X117.324 Y63.788 E2.97879
G1 X117.448 Y63.609 E2.98604
G1 X117.5 Y63.364 E2.99437
G1 X117.5 Y60.266 E3.09741
G0 F6000 X117.1 Y60.266
G1 F1200 X117.041 Y60.125 E3.10249
G1 X116.69 Y59.774 E3.119
G1 X116.549 Y59.715 E3.12408
G1 X113.451 Y59.715 E3.22712
G1 X113.31 Y59.774 E3.23221
G1 X112.959 Y60.125 E3.24872
G1 X112.9 Y60.266 E3.2538
G1 X112.9 Y63.364 E3.35684
G1 X112.959 Y63.505 E3.36192
G1 X113.31 Y63.856 E3.37843
G1 X113.451 Y63.915 E3.38352
G1 X116.549 Y63.915 E3.48656
G1 X116.69 Y63.856 E3.49164
G1 X117.041 Y63.505 E3.50815
G1 X117.1 Y63.364 E3.51323
G1 X117.1 Y60.266 E3.61627
G1 F1500 E-2.88373
G1 F300 Z0.4
G0 F6000 X128.5 Y57.815 Z0.4
G1 F300 Z0.2
G1 F1500 E3.61627
G1 F1200 X128.5 Y91.259 E4.72863
G1 X128.356 Y91.108 E4.73557
G1 X128.13 Y90.939 E4.74495
G1 X127.866 Y90.839 E4.75434
G1 X127.649 Y90.815 E4.7616
G1 X127.35 Y90.815 E4.77155
G1 X127.071 Y90.855 E4.78092
G1 X126.814 Y90.971 E4.7903
G1 X126.526 Y91.225 E4.80307
G1 X126.357 Y91.451 E4.81246
G1 X126.257 Y91.715 E4.82185
G1 X126.233 Y91.933 E4.82914
G1 X126.234 Y93.699 E4.88788
G1 X126.274 Y93.978 E4.89725
G1 X126.39 Y94.235 E4.90663
G1 X126.644 Y94.522 E4.91938
G1 X126.87 Y94.691 E4.92877
G1 X127.134 Y94.791 E4.93816
G1 X127.351 Y94.815 E4.94542
G1 X127.65 Y94.815 E4.95536
G1 X127.929 Y94.775 E4.96474
G1 X128.186 Y94.659 E4.97411
G1 X128.474 Y94.405 E4.98689
G1 X128.5 Y94.37 E4.98834
G1 X128.5 Y110.815 E5.5353
G1 X111.5 Y110.815 E6.10072
G1 X111.5 Y94.371 E6.64765
G1 X111.644 Y94.522 E6.65459
G1 X111.87 Y94.691 E6.66398
G1 X112.134 Y94.791 E6.67337
G1 X112.351 Y94.815 E6.68063
G1 X112.65 Y94.815 E6.69057
G1 X112.929 Y94.775 E6.69995
G1 X113.186 Y94.659 E6.70933
G1 X113.474 Y94.405 E6.7221
G1 X113.643 Y94.179 E6.73148
G1 X113.743 Y93.915 E6.74087
G1 X113.767 Y93.697 E6.74817
G1 X113.766 Y91.931 E6.80691
G1 X113.726 Y91.652 E6.81628
G1 X113.61 Y91.395 E6.82566
G1 X113.356 Y91.108 E6.83841
G1 X113.13 Y90.939 E6.84779
G1 X112.866 Y90.839 E6.85718
G1 X112.649 Y90.815 E6.86444
G1 X112.35 Y90.815 E6.87439
G1 X112.071 Y90.855 E6.88376
G1 X111.814 Y90.971 E6.89314
G1 X111.526 Y91.225 E6.90591
G1 X111.5 Y91.26 E6.90736
G1 X111.5 Y57.815 E8.01975
G1 X128.5 Y57.815 E8.58517
G0 F6000 X128.9 Y57.415
G1 F1200 X128.9 Y111.215 E10.37456
G1 X111.1 Y111.215 E10.96659
G1 X111.1 Y57.415 E12.75599
G1 X128.9 Y57.415 E13.34802
G0 F6000 X129.3 Y57.015
G1 F1200 X129.3 Y111.615 E15.16402
G1 X110.7 Y111.615 E15.78266
G1 X110.7 Y57.015 E17.59867
G1 X129.3 Y57.015 E18.2173
G1 F1500 E11.7173
G1 F300 Z0.4
G0 F6000 X129.3 Y128.385 Z0.4
G1 F300 Z0.2
G1 F1500 E18.2173
G1 F1200 X129.3 Y182.985 E20.03331
G1 X110.7 Y182.985 E20.65195
G1 X110.7 Y128.385 E22.46795
G1 X129.3 Y128.385 E23.08659
G0 F6000 X128.9 Y128.785
G1 F1200 X128.9 Y182.585 E24.87598
G1 X111.1 Y182.585 E25.46801
G1 X111.1 Y128.785 E27.25741
G1 X128.9 Y128.785 E27.84944
G0 F6000 X128.5 Y129.185
G1 F1200 X128.5 Y182.185 E29.61223
G1 X111.5 Y182.185 E30.17765
G1 X111.5 Y129.185 E31.94044
G1 X128.5 Y129.185 E32.50586
G1 F1500 E26.00586
G1 F300 Z0.4
G0 F6000 X123.451 Y175.285 Z0.4
G1 F300 Z0.2
G1 F1500 E32.50586
G1 F1200 X123.172 Y175.325 E32.51523
G1 X122.915 Y175.441 E32.52461
G1 X122.744 Y175.578 E32.5319
G1 X122.393 Y175.929 E32.54841
G1 X122.224 Y176.155 E32.55779
G1 X122.124 Y176.419 E32.56718
G1 X122.1 Y176.636 E32.57445
G1 X122.1 Y179.734 E32.67749
G1 X122.14 Y180.013 E32.68686
G1 X122.256 Y180.27 E32.69624
G1 X122.393 Y180.441 E32.70353
G1 X122.744 Y180.792 E32.72004
G1 X122.97 Y180.961 E32.72942
G1 X123.234 Y181.061 E32.73881
G1 X123.451 Y181.085 E32.74607
G1 X126.549 Y181.085 E32.84911
G1 X126.828 Y181.045 E32.85849
G1 X127.085 Y180.929 E32.86787
G1 X127.256 Y180.792 E32.87515
G1 X127.607 Y180.441 E32.89166
G1 X127.776 Y180.215 E32.90105
G1 X127.876 Y179.951 E32.91044
G1 X127.9 Y179.734 E32.9177
G1 X127.9 Y176.636 E33.02074
G1 X127.86 Y176.357 E33.03011
G1 X127.744 Y176.1 E33.03949
G1 X127.607 Y175.929 E33.04678
G1 X127.256 Y175.578 E33.06329
G1 X127.03 Y175.409 E33.07268
G1 X126.766 Y175.309 E33.08207
G1 X126.549 Y175.285 E33.08933
G1 X123.451 Y175.285 E33.19237
G0 F6000 X123.451 Y175.685
G1 F1200 X123.236 Y175.725 E33.19964
G1 X123.027 Y175.861 E33.20793
G1 X122.676 Y176.212 E33.22444
G1 X122.552 Y176.391 E33.23169
G1 X122.5 Y176.636 E33.24002
G1 X122.5 Y179.734 E33.34306
G1 X122.54 Y179.949 E33.35033
G1 X122.676 Y180.158 E33.35862
G1 X123.027 Y180.509 E33.37513
G1 X123.206 Y180.633 E33.38238
G1 X123.451 Y180.685 E33.39071
G1 X126.549 Y180.685 E33.49375
G1 X126.764 Y180.645 E33.50102
G1 X126.973 Y180.509 E33.50931
G1 X127.324 Y180.158 E33.52582
G1 X127.448 Y179.979 E33.53307
G1 X127.5 Y179.734 E33.5414
G1 X127.5 Y176.636 E33.64444
G1 X127.46 Y176.421 E33.65171
G1 X127.324 Y176.212 E33.66
G1 X126.973 Y175.861 E33.67651
G1 X126.794 Y175.737 E33.68376
G1 X126.549 Y175.685 E33.69209
G1 X123.451 Y175.685 E33.79513
G0 F6000 X123.451 Y176.085
G1 F1200 X123.31 Y176.144 E33.80021
G1 X122.959 Y176.495 E33.81672
G1 X122.9 Y176.636 E33.8218
G1 X122.9 Y179.734 E33.92484
G1 X122.959 Y179.875 E33.92993
G1 X123.31 Y180.226 E33.94644
G1 X123.451 Y180.285 E33.95152
G1 X126.549 Y180.285 E34.05456
G1 X126.69 Y180.226 E34.05964
G1 X127.041 Y179.875 E34.07615
G1 X127.1 Y179.734 E34.08124
G1 X127.1 Y176.636 E34.18428
G1 X127.041 Y176.495 E34.18936
G1 X126.69 Y176.144 E34.20587
G1 X126.549 Y176.085 E34.21096
G1 X123.451 Y176.085 E34.314
G1 F1500 E27.814
G1 F300 Z0.4
G0 F6000 X116.549 Y176.085 Z0.4
G1 F300 Z0.2
G1 F1500 E34.314
G1 F1200 X113.451 Y176.085 E34.41704
G1 X113.31 Y176.144 E34.42212
G1 X112.959 Y176.495 E34.43863
G1 X112.9 Y176.636 E34.44371
G1 X112.9 Y179.734 E34.54675
G1 X112.959 Y179.875 E34.55184
G1 X113.31 Y180.226 E34.56835
G1 X113.451 Y180.285 E34.57343
G1 X116.549 Y180.285 E34.67647
G1 X116.69 Y180.226 E34.68155
G1 X117.041 Y179.875 E34.69806
G1 X117.1 Y179.734 E34.70315
G1 X117.1 Y176.636 E34.80619
G1 X117.041 Y176.495 E34.81127
G1 X116.69 Y176.144 E34.82778
G1 X116.549 Y176.085 E34.83286
G0 F6000 X116.549 Y175.685
G1 F1200 X113.451 Y175.685 E34.9359
G1 X113.236 Y175.725 E34.94318
G1 X113.027 Y175.861 E34.95147
G1 X112.676 Y176.212 E34.96798
G1 X112.552 Y176.391 E34.97522
G1 X112.5 Y176.636 E34.98355
G1 X112.5 Y179.734 E35.08659
G1 X112.54 Y179.949 E35.09387
G1 X112.676 Y180.158 E35.10216
G1 X113.027 Y180.509 E35.11867
G1 X113.206 Y180.633 E35.12591
G1 X113.451 Y180.685 E35.13424
G1 X116.549 Y180.685 E35.23728
G1 X116.764 Y180.645 E35.24456
G1 X116.973 Y180.509 E35.25285
G1 X117.324 Y180.158 E35.26936
G1 X117.448 Y179.979 E35.2766
G1 X117.5 Y179.734 E35.28493
G1 X117.5 Y176.636 E35.38797
G1 X117.46 Y176.421 E35.39525
G1 X117.324 Y176.212 E35.40354
G1 X116.973 Y175.861 E35.42005
G1 X116.794 Y175.737 E35.42729
G1 X116.549 Y175.685 E35.43562
G0 F6000 X116.549 Y175.285
G1 F1200 X113.451 Y175.285 E35.53866
G1 X113.172 Y175.325 E35.54804
G1 X112.915 Y175.441 E35.55742
G1 X112.744 Y175.578 E35.5647
G1 X112.393 Y175.929 E35.58121
G1 X112.224 Y176.155 E35.5906
G1 X112.124 Y176.419 E35.59999
G1 X112.1 Y176.636 E35.60725
G1 X112.1 Y179.734 E35.71029
G1 X112.14 Y180.013 E35.71967
G1 X112.256 Y180.27 E35.72904
G1 X112.393 Y180.441 E35.73633
G1 X112.744 Y180.792 E35.75284
G1 X112.97 Y180.961 E35.76223
G1 X113.234 Y181.061 E35.77162
G1 X113.451 Y181.085 E35.77888
G1 X116.549 Y181.085 E35.88192
G1 X116.828 Y181.045 E35.89129
G1 X117.085 Y180.929 E35.90067
G1 X117.256 Y180.792 E35.90796
G1 X117.607 Y180.441 E35.92447
G1 X117.776 Y180.215 E35.93385
G1 X117.876 Y179.951 E35.94324
G1 X117.9 Y179.734 E35.95051
G1 X117.9 Y176.636 E36.05355
G1 X117.86 Y176.357 E36.06292
G1 X117.744 Y176.1 E36.0723
G1 X117.607 Y175.929 E36.07959
G1 X117.256 Y175.578 E36.0961
G1 X117.03 Y175.409 E36.10548
G1 X116.766 Y175.309 E36.11487
G1 X116.549 Y175.285 E36.12213
G0 F6000 X117.129 Y174.885
;TYPE:SUPPORT
G1 F1200 X112.871 Y174.885 E36.26375
G1 X111.9 Y175.856 E36.30943
G1 X111.9 Y129.585 E37.84841
G1 X128.1 Y129.585 E38.38722
G1 X128.1 Y175.856 E39.9262
G1 X127.129 Y174.885 E39.97187
G1 X122.871 Y174.885 E40.1135
G1 X121.7 Y176.056 E40.16858
G1 X121.7 Y180.314 E40.3102
G1 X122.871 Y181.485 E40.36528
G1 X127.129 Y181.485 E40.5069
G1 X128.1 Y180.514 E40.55257
G1 X128.1 Y181.785 E40.59485
G1 X111.9 Y181.785 E41.13366
G1 X111.9 Y180.514 E41.17593
G1 X112.871 Y181.485 E41.22161
G1 X117.129 Y181.485 E41.36323
G1 X118.3 Y180.314 E41.41831
G1 X118.3 Y176.056 E41.55993
G1 X117.129 Y174.885 E41.61501
G0 F6000 X117.295 Y174.485
G1 F1200 X112.705 Y174.485 E41.76767
G1 X112.3 Y174.89 E41.78672
G1 X112.3 Y129.985 E43.28027
G1 X127.7 Y129.985 E43.79248
G1 X127.7 Y174.89 E45.28602
G1 X127.295 Y174.485 E45.30507
G1 X122.705 Y174.485 E45.45774
G1 X121.3 Y175.89 E45.52382
G1 X121.3 Y180.48 E45.67649
G1 X122.205 Y181.385 E45.71906
G1 X117.795 Y181.385 E45.86573
G1 X118.7 Y180.48 E45.9083
G1 X118.7 Y175.89 E46.06097
G1 X117.295 Y174.485 E46.12705
G0 F6000 X116 Y174.405
G1 F1200 X116 Y130.065 E47.60181
G1 F1500 E41.10181
G1 F300 Z0.4
G0 F6000 X120 Y130.065 Z0.4
G1 F300 Z0.2
G1 F1500 E47.60181
G1 F1200 X120 Y181.305 E49.30606
G1 F1500 E42.80606
G1 F300 Z0.4
G0 F6000 X121.219 Y180 Z0.4
G1 F300 Z0.2
G1 F1500 E49.30606
G1 F1200 X118.779 Y180 E49.38721
G1 F1500 E42.88721
G1 F300 Z0.4
G0 F6000 X118.779 Y176 Z0.4
G1 F300 Z0.2
G1 F1500 E49.38721
G1 F1200 X121.219 Y176 E49.46837
G1 F1500 E42.96837
G1 F300 Z0.4
G0 F6000 X124 Y174.405 Z0.4
G1 F300 Z0.2
G1 F1500 E49.46837
G1 F1200 X124 Y130.065 E50.94312
G1 F1500 E44.44312
G1 F300 Z0.4
G0 F6000 X127.619 Y132 Z0.4
G1 F300 Z0.2
G1 F1500 E50.94312
G1 F1200 X112.379 Y132 E51.45
G1 F1500 E44.95
G1 F300 Z0.4
G0 F6000 X112.379 Y136 Z0.4
G1 F300 Z0.2
G1 F1500 E51.45
G1 F1200 X127.619 Y136 E51.95689
G1 F1500 E45.45689
G1 F300 Z0.4
G0 F6000 X127.619 Y140 Z0.4
G1 F300 Z0.2
G1 F1500 E51.95689
G1 F1200 X112.379 Y140 E52.46377
G1 F1500 E45.96377
G1 F300 Z0.4
G0 F6000 X112.379 Y144 Z0.4
G1 F300 Z0.2
G1 F1500 E52.46377
G1 F1200 X127.619 Y144 E52.97066
G1 F1500 E46.47066
G1 F300 Z0.4
G0 F6000 X127.619 Y148 Z0.4
G1 F300 Z0.2
G1 F1500 E52.97066
G1 F1200 X112.379 Y148 E53.47754
G1 F1500 E46.97754
G1 F300 Z0.4
G0 F6000 X112.379 Y152 Z0.4
G1 F300 Z0.2
G1 F1500 E53.47754
G1 F1200 X127.619 Y152 E53.98443
G1 F1500 E47.48443
G1 F300 Z0.4
G0 F6000 X127.619 Y156 Z0.4
G1 F300 Z0.2
G1 F1500 E53.98443
G1 F1200 X112.379 Y156 E54.49131
G1 F1500 E47.99131
G1 F300 Z0.4
G0 F6000 X112.379 Y160 Z0.4
G1 F300 Z0.2
G1 F1500 E54.49131
G1 F1200 X127.619 Y160 E54.9982
G1 F1500 E48.4982
G1 F300 Z0.4
G0 F6000 X127.619 Y164 Z0.4
G1 F300 Z0.2
G1 F1500 E54.9982
G1 F1200 X112.379 Y164 E55.50508
G1 F1500 E49.00508
G1 F300 Z0.4
G0 F6000 X112.379 Y168 Z0.4
G1 F300 Z0.2
G1 F1500 E55.50508
G1 F1200 X127.619 Y168 E56.01196
G1 F1500 E49.51196
G1 F300 Z0.4
G0 F6000 X127.619 Y172 Z0.4
G1 F300 Z0.2
G1 F1500 E56.01196
G1 F1200 X112.379 Y172 E56.51885
G1 F1500 E50.01885
G1 F300 Z0.4
G0 F6000 X111.9 Y110.415 Z0.4
G1 F300 Z0.2
G1 F1500 E56.51885
G1 F1200 X111.9 Y95.215 E57.0244
G1 X113.23 Y95.215 E57.06864
G1 X114.167 Y94.278 E57.11271
G1 X114.166 Y91.352 E57.21003
G1 X113.229 Y90.415 E57.25411
G1 X111.9 Y90.415 E57.29831
G1 X111.9 Y64.144 E58.17209
G1 X112.871 Y65.115 E58.21776
G1 X117.129 Y65.115 E58.35938
G1 X118.3 Y63.944 E58.41446
G1 X118.3 Y59.686 E58.55608
G1 X117.129 Y58.515 E58.61116
G1 X112.871 Y58.515 E58.75278
G1 X111.9 Y59.486 E58.79846
G1 X111.9 Y58.215 E58.84073
G1 X128.1 Y58.215 E59.37954
G1 X128.1 Y59.486 E59.42182
G1 X127.129 Y58.515 E59.46749
G1 X122.871 Y58.515 E59.60911
G1 X121.7 Y59.686 E59.66419
