;FLAVOR:Marlin
;TIME:3856
;Filament used: 2.68283m
;Layer height: 0.2
;MINX:105.7
;MINY:64.7
;MINZ:0.2
;MAXX:134.3
;MAXY:175.3
;MAXZ:7
;Generated with Cura_SteamEngine 4.13.1
M140 S60
M105
M190 S60
M104 S200
M105
M109 S200
M82 ;absolute extrusion mode
; Ender 3 Custom Start G-code
G92 E0 ; Reset Extruder
G28 ; Home all axes
G1 Z2.0 F3000 ; Move Z Axis up little to prevent scratching of Heat Bed
G1 X0.1 Y20 Z0.3 F5000.0 ; Move to start position
G1 X0.1 Y200.0 Z0.3 F1500.0 E15 ; Draw the first line
G1 X0.4 Y200.0 Z0.3 F5000.0 ; Move to side a little
G1 X0.4 Y20 Z0.3 F1500.0 E30 ; Draw the second line
G92 E0 ; Reset Extruder
G1 Z2.0 F3000 ; Move Z Axis up little to prevent scratching of Heat Bed
G1 X5 Y20 Z0.3 F5000.0 ; Move over to prevent blob squish
G92 E0
G92 E0
G1 F1500 E-6.5
;LAYER_COUNT:34
;LAYER:0
M107
G1 F300 Z0.4
;MESH:CuraTemp_309688.stl
G0 F6000 X116.4 Y79.1 Z0.4
;TYPE:WALL-INNER
G1 F300 Z0.2
G1 F1500 E0
G1 F1200 X123.6 Y79.1 E0.23947
G1 X123.6 Y71.9 E0.47895
G1 X116.4 Y71.9 E0.71842
G1 X116.4 Y79.1 E0.95789
G0 F6000 X116.8 Y78.7
;TYPE:WALL-OUTER
G1 F1200 X123.2 Y78.7 E1.17076
G1 X123.2 Y72.3 E1.38362
G1 X116.8 Y72.3 E1.59649
G1 X116.8 Y78.7 E1.80935
G1 F1500 E-4.69065
G1 F300 Z0.4
G0 F6000 X124.52 Y115.1 Z0.4
;TYPE:WALL-INNER
G1 F300 Z0.2
G1 F1500 E1.80935
G1 F1200 X124.6 Y115.1 E1.81201
G1 X124.6 Y109.9 E1.98496
G1 X114.4 Y109.9 E2.32422
G1 X114.4 Y115.1 E2.49717
G1 X114.48 Y115.1 E2.49983
G1 X114.48 Y130.02 E2.99607
G1 X124.52 Y130.02 E3.33
G1 X124.52 Y115.1 E3.82625
G1 F1500 E-2.67375
G1 F300 Z0.4
G0 F6000 X119.8 Y114.7 Z0.4
;TYPE:WALL-OUTER
G1 F300 Z0.2
G1 F1500 E3.82625
G1 F1200 X124.2 Y114.7 E3.97259
G1 X124.2 Y110.3 E4.11894
G1 X119.8 Y110.3 E4.26528
G1 X119.8 Y114.7 E4.41162
G0 F6000 X119.2 Y114.7
G1 F1200 X119.2 Y110.3 E4.55797
G1 X114.8 Y110.3 E4.70431
G1 X114.8 Y114.7 E4.85066
G1 X119.2 Y114.7 E4.997
G1 F1500 E-1.503
G1 F300 Z0.4
G0 F6000 X119.12 Y119.62 Z0.4
G1 F300 Z0.2
G1 F1500 E4.997
G1 F1200 X119.12 Y115.38 E5.13803
G1 X114.88 Y115.38 E5.27905
G1 X114.88 Y119.62 E5.42007
G1 X119.12 Y119.62 E5.56109
G0 F6000 X119.88 Y119.62
G1 F1200 X124.12 Y119.62 E5.70212
G1 X124.12 Y115.38 E5.84314
G1 X119.88 Y115.38 E5.98416
G1 X119.88 Y119.62 E6.12519
G1 F1500 E-0.37481
G1 F300 Z0.4
G0 F6000 X119.88 Y124.62 Z0.4
G1 F300 Z0.2
G1 F1500 E6.12519
G1 F1200 X124.12 Y124.62 E6.26621
G1 X124.12 Y120.38 E6.40723
G1 X119.88 Y120.38 E6.54826
G1 X119.88 Y124.62 E6.68928
G0 F6000 X119.12 Y124.62
G1 F1200 X119.12 Y120.38 E6.8303
G1 X114.88 Y120.38 E6.97132
G1 X114.88 Y124.62 E7.11235
G1 X119.12 Y124.62 E7.25337
G1 F1500 E0.75337
G1 F300 Z0.4
G0 F6000 X119.12 Y129.62 Z0.4
G1 F300 Z0.2
G1 F1500 E7.25337
G1 F1200 X119.12 Y125.38 E7.39439
G1 X114.88 Y125.38 E7.53542
G1 X114.88 Y129.62 E7.67644
G1 X119.12 Y129.62 E7.81746
G0 F6000 X119.88 Y129.62
G1 F1200 X124.12 Y129.62 E7.95849
G1 X124.12 Y125.38 E8.09951
G1 X119.88 Y125.38 E8.24053
G1 X119.88 Y129.62 E8.38155
G1 F1500 E1.88155
G1 F300 Z0.4
G0 F6000 X133.9 Y174.9 Z0.4
;TYPE:WALL-INNER
G1 F300 Z0.2
G1 F1500 E8.38155
G1 F1200 X106.1 Y174.9 E9.30619
G1 X106.1 Y65.1 E12.95815
G1 X133.9 Y65.1 E13.88278
G1 X133.9 Y174.9 E17.53474
G0 F6000 X134.3 Y175.3
;TYPE:WALL-OUTER
G1 F1200 X105.7 Y175.3 E18.48598
G1 X105.7 Y64.7 E22.16455
G1 X134.3 Y64.7 E23.11579
G1 X134.3 Y175.3 E26.79436
G0 F6000 X133.51 Y174.51
;TYPE:SKIN
G1 F1200 X106.49 Y174.51 E27.69305
G1 X106.49 Y65.49 E31.31907
G1 X133.51 Y65.49 E32.21776
G1 X133.51 Y174.51 E35.84378
G1 F1500 E29.34378
G1 F300 Z0.4
G0 F6000 X124.91 Y130.41 Z0.4
G1 F300 Z0.2
G1 F1500 E35.84378
G1 F1200 X124.91 Y115.49 E36.34002
G1 X124.99 Y115.49 E36.34268
G1 X124.99 Y109.51 E36.54158
G1 X114.01 Y109.51 E36.90678
G1 X114.01 Y115.49 E37.10567
G1 X114.09 Y115.49 E37.10833
G1 X114.09 Y130.41 E37.60457
G1 X124.91 Y130.41 E37.96445
G1 F1500 E31.46445
G1 F300 Z0.4
G0 F6000 X123.99 Y79.49 Z0.4
G1 F300 Z0.2
G1 F1500 E37.96445
G1 F1200 X123.99 Y71.51 E38.22986
G1 X116.01 Y71.51 E38.49528
G1 X116.01 Y79.49 E38.7607
G1 X123.99 Y79.49 E39.02611
G1 F1500 E32.52611
G1 F300 Z0.4
G0 F6000 X133.349 Y66.033 Z0.4
G1 F300 Z0.2
G1 F1500 E39.02611
G1 F1200 X132.966 Y65.649 E39.04415
G0 F6000 X132.4 Y65.649
G1 F1200 X133.349 Y66.598 E39.08879
G0 F6000 X133.349 Y67.164
G1 F1200 X131.835 Y65.649 E39.16003
G0 F6000 X131.269 Y65.649
G1 F1200 X133.349 Y67.73 E39.25789
G0 F6000 X133.349 Y68.295
G1 F1200 X130.703 Y65.649 E39.38235
G0 F6000 X130.138 Y65.649
G1 F1200 X133.349 Y68.861 E39.53341
G0 F6000 X133.349 Y69.427
G1 F1200 X129.572 Y65.649 E39.71109
G0 F6000 X129.006 Y65.649
G1 F1200 X133.349 Y69.992 E39.91537
G0 F6000 X133.349 Y70.558
G1 F1200 X128.44 Y65.649 E40.14627
G0 F6000 X127.875 Y65.649
G1 F1200 X133.349 Y71.124 E40.40378
G0 F6000 X133.349 Y71.69
G1 F1200 X127.309 Y65.649 E40.6879
G0 F6000 X126.743 Y65.649
G1 F1200 X133.349 Y72.255 E40.99863
G0 F6000 X133.349 Y72.821
G1 F1200 X126.178 Y65.649 E41.33595
G0 F6000 X125.612 Y65.649
G1 F1200 X133.349 Y73.387 E41.6999
G0 F6000 X133.349 Y73.952
G1 F1200 X125.046 Y65.649 E42.09045
G0 F6000 X124.481 Y65.649
G1 F1200 X133.349 Y74.518 E42.5076
G0 F6000 X133.349 Y75.084
G1 F1200 X123.915 Y65.649 E42.95137
G0 F6000 X123.349 Y65.649
G1 F1200 X133.349 Y75.649 E43.42174
G0 F6000 X133.349 Y76.215
G1 F1200 X122.784 Y65.649 E43.91871
G0 F6000 X122.218 Y65.649
G1 F1200 X133.349 Y76.781 E44.4423
G0 F6000 X133.349 Y77.346
G1 F1200 X121.652 Y65.649 E44.99249
G0 F6000 X121.087 Y65.649
G1 F1200 X133.349 Y77.912 E45.56928
G0 F6000 X133.349 Y78.478
G1 F1200 X120.521 Y65.649 E46.17269
G0 F6000 X119.955 Y65.649
G1 F1200 X133.349 Y79.043 E46.8027
G0 F6000 X133.349 Y79.609
G1 F1200 X119.39 Y65.649 E47.45932
G0 F6000 X118.824 Y65.649
G1 F1200 X133.349 Y80.175 E48.14255
G0 F6000 X133.349 Y80.74
G1 F1200 X124.149 Y71.54 E48.57529
G0 F6000 X123.958 Y71.349
G1 F1200 X118.258 Y65.649 E48.8434
G0 F6000 X117.692 Y65.649
G1 F1200 X123.392 Y71.349 E49.11151
G0 F6000 X122.827 Y71.349
G1 F1200 X117.127 Y65.649 E49.37962
G0 F6000 X116.561 Y65.649
G1 F1200 X122.261 Y71.349 E49.64773
G0 F6000 X121.695 Y71.349
G1 F1200 X115.995 Y65.649 E49.91584
G0 F6000 X115.43 Y65.649
G1 F1200 X121.13 Y71.349 E50.18395
G0 F6000 X120.564 Y71.349
G1 F1200 X114.864 Y65.649 E50.45207
G0 F6000 X114.298 Y65.649
G1 F1200 X119.998 Y71.349 E50.72018
G0 F6000 X119.433 Y71.349
G1 F1200 X113.733 Y65.649 E50.98829
G0 F6000 X113.167 Y65.649
G1 F1200 X118.867 Y71.349 E51.2564
G0 F6000 X118.301 Y71.349
G1 F1200 X112.601 Y65.649 E51.52451
G0 F6000 X112.036 Y65.649
G1 F1200 X117.736 Y71.349 E51.79262
G0 F6000 X117.17 Y71.349
G1 F1200 X111.47 Y65.649 E52.06073
G0 F6000 X110.904 Y65.649
G1 F1200 X116.604 Y71.349 E52.32884
G0 F6000 X116.039 Y71.349
G1 F1200 X110.339 Y65.649 E52.59695
G0 F6000 X109.773 Y65.649
G1 F1200 X115.849 Y71.726 E52.88277
G0 F6000 X115.849 Y72.291
G1 F1200 X109.207 Y65.649 E53.19519
G0 F6000 X108.642 Y65.649
G1 F1200 X115.849 Y72.857 E53.53421
G0 F6000 X115.849 Y73.423
G1 F1200 X108.076 Y65.649 E53.89985
G0 F6000 X107.51 Y65.649
G1 F1200 X115.849 Y73.988 E54.29209
G0 F6000 X115.849 Y74.554
G1 F1200 X106.944 Y65.649 E54.71095
G0 F6000 X106.649 Y65.92
G1 F1200 X115.849 Y75.12 E55.14369
G0 F6000 X115.849 Y75.685
G1 F1200 X106.649 Y66.485 E55.57643
G0 F6000 X106.649 Y67.051
G1 F1200 X115.849 Y76.251 E56.00917
G0 F6000 X115.849 Y76.817
G1 F1200 X106.649 Y67.617 E56.44191
G0 F6000 X106.649 Y68.182
G1 F1200 X115.849 Y77.382 E56.87465
G0 F6000 X115.849 Y77.948
G1 F1200 X106.649 Y68.748 E57.30739
G0 F6000 X106.649 Y69.314
G1 F1200 X115.849 Y78.514 E57.74013
G0 F6000 X115.849 Y79.079
G1 F1200 X106.649 Y69.879 E58.17287
G0 F6000 X106.649 Y70.445
G1 F1200 X115.849 Y79.645 E58.60561
G1 X115.853 Y79.649
G1 X133.349 Y97.145 E59.42857
G0 F6000 X133.349 Y96.58
G1 F1200 X116.419 Y79.649 E60.22493
G0 F6000 X116.985 Y79.649
G1 F1200 X133.349 Y96.014 E60.99467
G0 F6000 X133.349 Y95.448
G1 F1200 X117.55 Y79.649 E61.7378
G0 F6000 X118.116 Y79.649
G1 F1200 X133.349 Y94.883 E62.45434
G0 F6000 X133.349 Y94.317
G1 F1200 X118.682 Y79.649 E63.14425
G0 F6000 X119.247 Y79.649
G1 F1200 X133.349 Y93.751 E63.80757
G0 F6000 X133.349 Y93.186
G1 F1200 X119.813 Y79.649 E64.44428
G0 F6000 X120.379 Y79.649
G1 F1200 X133.349 Y92.62 E65.05438
G0 F6000 X133.349 Y92.054
G1 F1200 X120.944 Y79.649 E65.63787
G0 F6000 X121.51 Y79.649
G1 F1200 X133.349 Y91.489 E66.19476
G0 F6000 X133.349 Y90.923
G1 F1200 X122.076 Y79.649 E66.72503
G0 F6000 X122.642 Y79.649
G1 F1200 X133.349 Y90.357 E67.22868
G0 F6000 X133.349 Y89.791
G1 F1200 X123.207 Y79.649 E67.70573
G0 F6000 X123.773 Y79.649
G1 F1200 X133.349 Y89.226 E68.15618
G0 F6000 X133.349 Y88.66
G1 F1200 X124.149 Y79.46 E68.58892
G0 F6000 X124.149 Y78.894
G1 F1200 X133.349 Y88.094 E69.02166
G0 F6000 X133.349 Y87.529
G1 F1200 X124.149 Y78.329 E69.4544
G0 F6000 X124.149 Y77.763
G1 F1200 X133.349 Y86.963 E69.88714
G0 F6000 X133.349 Y86.397
G1 F1200 X124.149 Y77.197 E70.31988
G0 F6000 X124.149 Y76.631
G1 F1200 X133.349 Y85.832 E70.75264
G0 F6000 X133.349 Y85.266
G1 F1200 X124.149 Y76.066 E71.18538
G0 F6000 X124.149 Y75.5
G1 F1200 X133.349 Y84.7 E71.61812
G0 F6000 X133.349 Y84.135
G1 F1200 X124.149 Y74.934 E72.05088
G0 F6000 X124.149 Y74.369
G1 F1200 X133.349 Y83.569 E72.48362
G0 F6000 X133.349 Y83.003
G1 F1200 X124.149 Y73.803 E72.91636
G0 F6000 X124.149 Y73.237
G1 F1200 X133.349 Y82.438 E73.34913
G0 F6000 X133.349 Y81.872
G1 F1200 X124.149 Y72.672 E73.78187
G0 F6000 X124.149 Y72.106
G1 F1200 X133.349 Y81.306 E74.21461
G1 F1500 E67.71461
G1 F300 Z0.4
G0 F6000 X133.349 Y97.711 Z0.4
G1 F300 Z0.2
G1 F1500 E74.21461
G1 F1200 X106.649 Y71.011 E75.47049
G0 F6000 X106.649 Y71.576
G1 F1200 X133.349 Y98.277 E76.7264
G0 F6000 X133.349 Y98.842
G1 F1200 X106.649 Y72.142 E77.98229
G0 F6000 X106.649 Y72.708
G1 F1200 X133.349 Y99.408 E79.23818
G0 F6000 X133.349 Y99.974
G1 F1200 X106.649 Y73.273 E80.49408
G0 F6000 X106.649 Y73.839
G1 F1200 X133.349 Y100.539 E81.74997
G0 F6000 X133.349 Y101.105
G1 F1200 X106.649 Y74.405 E83.00586
G0 F6000 X106.649 Y74.97
G1 F1200 X133.349 Y101.671 E84.26177
G0 F6000 X133.349 Y102.237
G1 F1200 X106.649 Y75.536 E85.51768
G0 F6000 X106.649 Y76.102
G1 F1200 X133.349 Y102.802 E86.77356
G0 F6000 X133.349 Y103.368
G1 F1200 X106.649 Y76.668 E88.02945
G0 F6000 X106.649 Y77.233
G1 F1200 X133.349 Y103.934 E89.28536
G0 F6000 X133.349 Y104.499
G1 F1200 X106.649 Y77.799 E90.54124
G0 F6000 X106.649 Y78.365
G1 F1200 X133.349 Y105.065 E91.79713
G0 F6000 X133.349 Y105.631
G1 F1200 X106.649 Y78.93 E93.05304
G0 F6000 X106.649 Y79.496
G1 F1200 X133.349 Y106.196 E94.30893
G0 F6000 X133.349 Y106.762
G1 F1200 X106.649 Y80.062 E95.56481
G0 F6000 X106.649 Y80.627
G1 F1200 X133.349 Y107.328 E96.82072
G0 F6000 X133.349 Y107.893
G1 F1200 X106.649 Y81.193 E98.07661
G0 F6000 X106.649 Y81.759
G1 F1200 X133.349 Y108.459 E99.33249
G0 F6000 X133.349 Y109.025
G1 F1200 X106.649 Y82.324 E100.5884
G0 F6000 X106.649 Y82.89
G1 F1200 X133.349 Y109.59 E101.84429
G0 F6000 X133.349 Y110.156
G1 F1200 X106.649 Y83.456 E103.10018
G0 F6000 X106.649 Y84.021
G1 F1200 X133.349 Y110.722 E104.35609
G0 F6000 X133.349 Y111.288
G1 F1200 X106.649 Y84.587 E105.612
G0 F6000 X106.649 Y85.153
G1 F1200 X133.349 Y111.853 E106.86788
G0 F6000 X133.349 Y112.419
G1 F1200 X106.649 Y85.719 E108.12377
G0 F6000 X106.649 Y86.284
G1 F1200 X133.349 Y112.985 E109.37968
G0 F6000 X133.349 Y113.55
G1 F1200 X106.649 Y86.85 E110.63556
G0 F6000 X106.649 Y87.416
G1 F1200 X133.349 Y114.116 E111.89145
G0 F6000 X133.349 Y114.682
G1 F1200 X106.649 Y87.981 E113.14736
G0 F6000 X106.649 Y88.547
G1 F1200 X133.349 Y115.247 E114.40325
G0 F6000 X133.349 Y115.813
G1 F1200 X106.649 Y89.113 E115.65913
G0 F6000 X106.649 Y89.678
G1 F1200 X133.349 Y116.379 E116.91504
G0 F6000 X133.349 Y116.944
G1 F1200 X106.649 Y90.244 E118.17093
G0 F6000 X106.649 Y90.81
G1 F1200 X133.349 Y117.51 E119.42681
G0 F6000 X133.349 Y118.076
G1 F1200 X125.149 Y109.875 E119.81254
G0 F6000 X125.149 Y110.441
G1 F1200 X133.349 Y118.641 E120.19824
G0 F6000 X133.349 Y119.207
G1 F1200 X125.149 Y111.007 E120.58395
G0 F6000 X125.149 Y111.572
G1 F1200 X133.349 Y119.773 E120.96967
G0 F6000 X133.349 Y120.338
G1 F1200 X125.149 Y112.138 E121.35538
G0 F6000 X125.149 Y112.704
G1 F1200 X133.349 Y120.904 E121.74108
G0 F6000 X133.349 Y121.47
G1 F1200 X125.149 Y113.27 E122.12678
G0 F6000 X125.149 Y113.835
G1 F1200 X133.349 Y122.036 E122.51251
G0 F6000 X133.349 Y122.601
G1 F1200 X125.149 Y114.401 E122.89821
G0 F6000 X125.149 Y114.967
G1 F1200 X133.349 Y123.167 E123.28391
G0 F6000 X133.349 Y123.733
G1 F1200 X125.149 Y115.532 E123.66964
G0 F6000 X125.068 Y116.017
G1 F1200 X133.349 Y124.298 E124.05915
G0 F6000 X133.349 Y124.864
G1 F1200 X125.068 Y116.583 E124.44867
G0 F6000 X125.068 Y117.149
G1 F1200 X133.349 Y125.43 E124.83818
G0 F6000 X133.349 Y125.995
G1 F1200 X125.068 Y117.714 E125.22769
G0 F6000 X125.068 Y118.28
G1 F1200 X133.349 Y126.561 E125.6172
G0 F6000 X133.349 Y127.127
G1 F1200 X125.068 Y118.846 E126.00672
G0 F6000 X125.068 Y119.411
G1 F1200 X133.349 Y127.692 E126.39623
G0 F6000 X133.349 Y128.258
G1 F1200 X125.068 Y119.977 E126.78574
G0 F6000 X125.068 Y120.543
G1 F1200 X133.349 Y128.824 E127.17526
G0 F6000 X133.349 Y129.389
G1 F1200 X125.068 Y121.109 E127.56474
G0 F6000 X125.068 Y121.674
G1 F1200 X133.349 Y129.955 E127.95426
G0 F6000 X133.349 Y130.521
G1 F1200 X125.068 Y122.24 E128.34377
G0 F6000 X125.068 Y122.806
G1 F1200 X133.349 Y131.086 E128.73326
G0 F6000 X133.349 Y131.652
G1 F1200 X125.068 Y123.371 E129.12277
G0 F6000 X125.068 Y123.937
G1 F1200 X133.349 Y132.218 E129.51229
G0 F6000 X133.349 Y132.784
G1 F1200 X125.068 Y124.503 E129.9018
G0 F6000 X125.068 Y125.068
G1 F1200 X133.349 Y133.349 E130.29131
G0 F6000 X133.349 Y133.915
G1 F1200 X125.068 Y125.634 E130.68082
G0 F6000 X125.068 Y126.2
G1 F1200 X133.349 Y134.481 E131.07034
G0 F6000 X133.349 Y135.046
G1 F1200 X125.068 Y126.765 E131.45985
G0 F6000 X125.068 Y127.331
G1 F1200 X133.349 Y135.612 E131.84936
G0 F6000 X133.349 Y136.178
G1 F1200 X125.068 Y127.897 E132.23888
G0 F6000 X125.068 Y128.462
G1 F1200 X133.349 Y136.743 E132.62839
G0 F6000 X133.349 Y137.309
G1 F1200 X125.068 Y129.028 E133.0179
G0 F6000 X125.068 Y129.594
G1 F1200 X133.349 Y137.875 E133.40741
G0 F6000 X133.349 Y138.44
G1 F1200 X125.068 Y130.159 E133.79693
G0 F6000 X124.912 Y130.569
G1 F1200 X133.349 Y139.006 E134.19378
G0 F6000 X133.349 Y139.572
G1 F1200 X124.346 Y130.569 E134.61725
G0 F6000 X123.781 Y130.569
G1 F1200 X133.349 Y140.137 E135.0673
G0 F6000 X133.349 Y140.703
G1 F1200 X123.215 Y130.569 E135.54397
G0 F6000 X122.649 Y130.569
G1 F1200 X133.349 Y141.269 E136.04727
G0 F6000 X133.349 Y141.835
G1 F1200 X122.084 Y130.569 E136.57716
G0 F6000 X121.518 Y130.569
G1 F1200 X133.349 Y142.4 E137.13366
G0 F6000 X133.349 Y142.966
G1 F1200 X120.952 Y130.569 E137.71677
G0 F6000 X120.387 Y130.569
G1 F1200 X133.349 Y143.532 E138.32649
G0 F6000 X133.349 Y144.097
G1 F1200 X119.821 Y130.569 E138.9628
G0 F6000 X119.255 Y130.569
G1 F1200 X133.349 Y144.663 E139.62574
G0 F6000 X133.349 Y145.229
G1 F1200 X118.689 Y130.569 E140.3153
G0 F6000 X118.124 Y130.569
G1 F1200 X133.349 Y145.794 E141.03144
G0 F6000 X133.349 Y146.36
G1 F1200 X117.558 Y130.569 E141.7742
G0 F6000 X116.992 Y130.569
G1 F1200 X133.349 Y146.926 E142.54359
G0 F6000 X133.349 Y147.491
G1 F1200 X116.427 Y130.569 E143.33954
G0 F6000 X115.861 Y130.569
G1 F1200 X133.349 Y148.057 E144.16213
G0 F6000 X133.349 Y148.623
G1 F1200 X115.295 Y130.569 E145.01133
G0 F6000 X114.73 Y130.569
G1 F1200 X133.349 Y149.188 E145.88711
G0 F6000 X133.349 Y149.754
G1 F1200 X114.164 Y130.569 E146.78952
G0 F6000 X113.929 Y130.334
G1 F1200 X106.649 Y123.054 E147.13194
G0 F6000 X106.649 Y123.619
G1 F1200 X133.349 Y150.32 E148.38785
G0 F6000 X133.349 Y150.885
G1 F1200 X106.649 Y124.185 E149.64374
G0 F6000 X106.649 Y124.751
G1 F1200 X133.349 Y151.451 E150.89963
G0 F6000 X133.349 Y152.017
G1 F1200 X106.649 Y125.316 E152.15554
G0 F6000 X106.649 Y125.882
G1 F1200 X133.349 Y152.583 E153.41145
G0 F6000 X133.349 Y153.148
G1 F1200 X106.649 Y126.448 E154.66733
G0 F6000 X106.649 Y127.014
G1 F1200 X133.349 Y153.714 E155.92322
G0 F6000 X133.349 Y154.28
G1 F1200 X106.649 Y127.579 E157.17913
G0 F6000 X106.649 Y128.145
